X: 11771
Q: "Slow."
M: C
L: 1/8
K: F	% and Dm
(F>G) |\
(GFGA) (cA)(G>F) | D2 d4 (cd) |\
f3g (ag)(fd) | (cA)(cd) f3F |\
(G>FGA) (cA)(G>F) | D2d2 d2 :|
|: (cd) |\
f3g (fgag) | f2a2 (ba)(gf) |\
(g>f)(ga) (ba)(gf) | d2g2 g2(fd) |\
(cd)(fg) (ag)(fd) | (cA)(cd) f3g |\
(ag)(fd) (cA)(G>F) | D2d2 d2 :|


